X:20
M:2/4
L:1/8
K:D
|: g | f d2 e/f/ | g e2 g | f d2 f | e/d/c/B/ A>g | f d2 e/f/ | g e2 g | fd ed/c/ | d3 :|

